svg/u2693.svg

<svg viewBox="0 0 128 128" xmlns="http://www.w3.org/2000/svg">
  <g>
    <g>
      <path d="M119.58,71.09c-0.35-3.54-2-3.21-3.51-1.96c0,0-12.71,13-15.69,15.21 c-2.61,1.93-1.4,3.78,0.02,4.54c0,0,0.65,0.41,2,1.08c-3.88,4.93-11.29,10.74-25.2,12.78c-1.55,0.23-2.96-0.95-3.03-2.51 l-3.23-41.18l12.76-2.14c1.79-0.3,3.1-1.85,3.1-3.66s-1.31-3.36-3.1-3.66L70.02,47.3l-1.11-14.1c6-1.95,10.35-7.59,10.35-14.23 C79.26,10.71,72.54,4,64.29,4s-14.97,6.71-14.97,14.97c0,6.65,4.37,12.3,10.38,14.24l-0.94,14.06l-13.89,2.33 c-1.79,0.3-3.1,1.85-3.1,3.66s1.31,3.36,3.1,3.66l13.1,2.19l-2.77,41.53c-0.07,1.57-1.48,2.74-3.03,2.51 c-14.72-2.17-22.42-8.67-26.33-13.88c1.6-1.03,2.39-1.74,2.39-1.74c1.42-0.75,2.62-2.61,0.02-4.54 c-2.98-2.21-16.69-13.86-16.69-13.86c-1.51-1.26-3.16-1.59-3.51,1.96c-0.32,3.24-0.58,12.26,2.01,22.15 c0.38,1.46,1.13,2.11,3.37,1.46c1.68-0.48,3.2-1.01,4.59-1.54C26.39,109.15,41.44,124,64.29,124c22.78,0,38.7-14.6,46.69-30.58 c1.27,0.43,2.64,0.86,4.16,1.3c2.24,0.65,2.99-0.01,3.37-1.46C121.11,83.36,119.9,74.33,119.58,71.09z M57.4,18.97 c0-3.8,3.09-6.89,6.89-6.89c3.8,0,6.89,3.09,6.89,6.89c0,3.8-3.09,6.89-6.89,6.89C60.49,25.86,57.4,22.77,57.4,18.97z" fill="#82AEC0"/>
      <g>
        <path d="M57.6,21.19c-0.01-0.7-0.2-1.5-0.2-2.22c0-3.51,2.64-6.41,6.04-6.83c0,0,0.3-0.05,0.38-0.06 c1.11-0.18,1.53-0.63,1.53-1.44s-0.88-1.34-1.44-1.4c-3.26-0.32-6.52,1.49-8.07,4c-1.68,2.7-1.89,5.26-0.98,7.7 c0.35,0.93,1.08,1.29,1.63,1.23C57,22.12,57.61,21.88,57.6,21.19z" fill="#2F7889"/>
        <path d="M56.8,22.11" fill="#2F7889"/>
      </g>
    </g>
    <path d="M64.29,113.42c0,0-4.71-9.06-12.11-10.26c-14.4-2.34-22.1-8.42-26.08-13.56l-0.43-0.19L15.58,76.5 C15.58,76.5,23.95,110.3,64.29,113.42z" fill="#94D1E0"/>
    <g opacity="0.89">
      <path d="M77,112.99c-8.04,2.34-11.25,10.93-11.25,10.93s8.06-0.23,15.34-2.82 c13.93-5.03,24.04-15.99,29.89-27.69c0,0,0,0,0,0c0-0.01,2.55-6.88,3.08-12.14C114.07,81.28,108.73,103.75,77,112.99z" fill="#2F7889"/>
    </g>
    <path d="M41.82,52.87h20.8c0.62,0,0.93-0.75,0.49-1.18l-4.42-4.4l-13.8,2.31 C43.22,49.87,41.99,51.23,41.82,52.87z" fill="#94D1E0"/>
    <path d="M86.77,53.62l-20.25-0.7c-0.63-0.02-0.96,0.74-0.51,1.18l4.96,4.92L83.7,56.9 C85.36,56.62,86.59,55.26,86.77,53.62z" fill="#2F7889"/>
  </g>
</svg>

<svg viewBox="0 0 128 128" xmlns="http://www.w3.org/2000/svg">
  <defs/>
  <path d="M119.58,71.09 C119.23,67.55 117.58,67.88 116.07,69.13 C116.07,69.13 103.36,82.13 100.38,84.34 C97.77,86.27 98.98,88.12 100.4,88.88 C100.4,88.88 101.05,89.29 102.4,89.96 C98.52,94.89 91.11,100.7 77.2,102.74 C75.65,102.97 74.24,101.79 74.17,100.23 L70.94,59.05 L83.7,56.91 C85.49,56.61 86.8,55.06 86.8,53.25 C86.8,51.44 85.49,49.89 83.7,49.59 L70.02,47.3 L68.91,33.2 C74.91,31.25 79.26,25.61 79.26,18.97 C79.26,10.71 72.54,4 64.29,4 C56.04,4 49.32,10.71 49.32,18.97 C49.32,25.62 53.69,31.27 59.7,33.21 L58.76,47.27 L44.87,49.6 C43.08,49.9 41.77,51.45 41.77,53.26 C41.77,55.07 43.08,56.62 44.87,56.92 L57.97,59.11 L55.2,100.64 C55.13,102.21 53.72,103.38 52.17,103.15 C37.45,100.98 29.75,94.48 25.84,89.27 C27.44,88.24 28.23,87.53 28.23,87.53 C29.65,86.78 30.85,84.92 28.25,82.99 C25.27,80.78 11.56,69.13 11.56,69.13 C10.05,67.87 8.4,67.54 8.05,71.09 C7.73,74.33 7.47,83.35 10.06,93.24 C10.44,94.7 11.19,95.35 13.43,94.7 C15.11,94.22 16.63,93.69 18.02,93.16 C26.39,109.15 41.44,124 64.29,124 C87.07,124 102.99,109.4 110.98,93.42 C112.25,93.85 113.62,94.28 115.14,94.72 C117.38,95.37 118.13,94.71 118.51,93.26 C121.11,83.36 119.9,74.33 119.58,71.09 Z M57.4,18.97 C57.4,15.17 60.49,12.08 64.29,12.08 C68.09,12.08 71.18,15.17 71.18,18.97 C71.18,22.77 68.09,25.86 64.29,25.86 C60.49,25.86 57.4,22.77 57.4,18.97 Z" fill="#82AEC0"/>
  <path d="M57.6,21.19 C57.59,20.49 57.4,19.69 57.4,18.97 C57.4,15.46 60.04,12.56 63.44,12.14 C63.44,12.14 63.74,12.09 63.82,12.08 C64.93,11.9 65.35,11.45 65.35,10.64 C65.35,9.83 64.47,9.3 63.91,9.24 C60.65,8.92 57.39,10.73 55.84,13.24 C54.16,15.94 53.95,18.5 54.86,20.94 C55.21,21.87 55.94,22.23 56.49,22.17 C57,22.12 57.61,21.88 57.6,21.19 Z" fill="#2F7889"/>
  <path d="M64.29,113.42 C64.29,113.42 59.58,104.36 52.18,103.16 C37.78,100.82 30.08,94.74 26.1,89.6 L25.67,89.41 L15.58,76.5 C15.58,76.5 23.95,110.3 64.29,113.42 Z" fill="#94D1E0"/>
  <path d="M77,112.99 C68.96,115.33 65.75,123.92 65.75,123.92 C65.75,123.92 73.81,123.69 81.09,121.1 C95.02,116.07 105.13,105.11 110.98,93.41 C110.98,93.41 110.98,93.41 110.98,93.41 C110.98,93.4 113.53,86.53 114.06,81.27 C114.07,81.28 108.73,103.75 77,112.99 Z" fill="#2F7889" opacity="0.89"/>
  <path d="M41.82,52.87 L62.62,52.87 C63.24,52.87 63.55,52.12 63.11,51.69 L58.69,47.29 L44.89,49.6 C43.22,49.87 41.99,51.23 41.82,52.87 Z" fill="#94D1E0"/>
  <path d="M86.77,53.62 L66.52,52.92 C65.89,52.9 65.56,53.66 66.01,54.1 L70.97,59.02 L83.7,56.9 C85.36,56.62 86.59,55.26 86.77,53.62 Z" fill="#2F7889"/>
</svg>
